X: 7533
T: Cock And The Hen, The
R: slip jig
M: 9/8
K: Bminor
|:BcB BAB g2 A|BcB BAB dBA|BcB BAB g2 e|fed edB dBA:|
afd def g2 e|afd def gfe|afd def g2 e|fed edB dBA|
afd def g2 e|afd def gfe|a2 a agf g2 e|fed edB dBA||

